tools/download-figma-icons/icons/outlined-large/faq.svg

<svg width="64" height="64" viewBox="0 0 64 64" fill="none" xmlns="http://www.w3.org/2000/svg">
<path fill-rule="evenodd" clip-rule="evenodd" d="M44.781 9.321C48.1243 12.69 50.0001 17.2425 49.9999 21.9871C50 26.7352 48.1215 31.2907 44.7739 34.6602C41.4263 38.0297 36.8813 39.9399 32.1299 39.9742H31.1899C28.2099 48.0984 16.52 49.8971 16 49.9671C15.9336 49.9756 15.8664 49.9756 15.8 49.9671C15.5606 49.9679 15.3245 49.9122 15.1107 49.8045C14.897 49.6968 14.7117 49.5402 14.57 49.3475C14.4076 49.1263 14.3096 48.8647 14.2867 48.5913C14.2637 48.318 14.3168 48.0437 14.44 47.7986C15.4935 45.3046 16.0244 42.6213 16 39.9143C6.91999 39.1648 1.0865e-08 31.5602 1.0865e-08 21.9871C-0.000164843 17.2425 1.87565 12.69 5.21893 9.321C8.5622 5.95204 13.1021 4.03953 17.85 3.99999H32.1499C36.8978 4.03953 41.4377 5.95204 44.781 9.321ZM29.1846 37.296C29.449 37.0897 29.7745 36.9772 30.1099 36.9764H32.1499C36.1282 36.9764 39.9435 35.3971 42.7565 32.5861C45.5696 29.7751 47.1499 25.9625 47.1499 21.9871C47.1499 18.0117 45.5696 14.1991 42.7565 11.3881C39.9435 8.57707 36.1282 6.99784 32.1499 6.99784H17.85C13.8928 7.02163 10.1068 8.61327 7.32274 11.4234C4.53867 14.2336 2.98403 18.0328 2.99999 21.9871C2.99999 30.3911 9.36998 36.9764 17.5 36.9764C17.8836 36.9782 18.2521 37.1259 18.5307 37.3895C18.8093 37.653 18.9771 38.0127 19 38.3953C19.1137 41.0863 18.8341 43.7794 18.17 46.3896C21.65 45.4203 27.4199 43.112 28.6499 38.1155C28.7321 37.7906 28.9202 37.5022 29.1846 37.296ZM13.5 16.9905H36.4999C36.8978 16.9905 37.2793 16.8326 37.5606 16.5515C37.8419 16.2704 37.9999 15.8891 37.9999 15.4916C37.9999 15.094 37.8419 14.7128 37.5606 14.4317C37.2793 14.1506 36.8978 13.9926 36.4999 13.9926H13.5C13.1021 13.9926 12.7206 14.1506 12.4393 14.4317C12.158 14.7128 12 15.094 12 15.4916C12 15.8891 12.158 16.2704 12.4393 16.5515C12.7206 16.8326 13.1021 16.9905 13.5 16.9905ZM63.9999 40.314C63.9999 34.1983 60.2799 28.7422 54.9999 27.0535C54.8101 26.9866 54.6087 26.9586 54.4079 26.9711C54.207 26.9836 54.0107 27.0364 53.8306 27.1264C53.6506 27.2163 53.4905 27.3415 53.3599 27.4946C53.2293 27.6476 53.1309 27.8253 53.0705 28.0172C53.01 28.2091 52.9889 28.4111 53.0082 28.6113C53.0276 28.8115 53.0871 29.0058 53.1831 29.1825C53.2792 29.3592 53.4099 29.5149 53.5674 29.6401C53.7249 29.7653 53.906 29.8576 54.0999 29.9114C58.1899 31.2105 61.0999 35.4874 61.0999 40.314C61.1007 42.646 60.3276 44.9125 58.9018 46.7587C57.4759 48.6048 55.4777 49.9264 53.2199 50.5166C52.9066 50.5717 52.6191 50.7256 52.3995 50.9558C52.18 51.1859 52.04 51.4803 51.9999 51.7957C51.8165 53.3945 51.8772 55.0118 52.1799 56.5923C50.9727 56.3151 49.8558 55.736 48.934 54.9092C48.0121 54.0825 47.3157 53.0352 46.9099 51.8657C46.8908 51.8139 46.8674 51.7637 46.8399 51.7158L46.7799 51.5959L46.6999 51.476L46.5999 51.356L46.5099 51.2761L46.3799 51.1662L46.2899 51.1062L46.1099 50.9663H45.9999L45.8199 50.9064H45.7199H45.5199H43.8699C40.87 50.9064 36.87 50.027 34.87 45.85C34.6949 45.4922 34.3848 45.2186 34.0079 45.0892C33.6309 44.9599 33.218 44.9856 32.86 45.1605C32.5019 45.3354 32.2281 45.6453 32.0987 46.022C31.9693 46.3986 31.9949 46.8113 32.17 47.169C34.3 51.5159 38.46 53.9042 43.8899 53.9042H44.5099C47.2199 59.8999 54.0999 59.9998 54.3999 59.9998C54.6581 60.0012 54.9123 59.936 55.1379 59.8105C55.3635 59.6849 55.5528 59.5033 55.6875 59.2833C55.8223 59.0632 55.8979 58.8121 55.9071 58.5542C55.9163 58.2964 55.8587 58.0405 55.7399 57.8114C55.0984 56.3402 54.8238 54.7354 54.9399 53.1348C57.5956 52.2028 59.8949 50.4675 61.5185 48.1699C63.1421 45.8724 64.0094 43.1266 63.9999 40.314ZM37.5606 21.4268C37.8419 21.7079 37.9999 22.0891 37.9999 22.4867C37.9999 22.8842 37.8419 23.2655 37.5606 23.5466C37.2793 23.8277 36.8978 23.9856 36.4999 23.9856H13.5C13.1021 23.9856 12.7206 23.8277 12.4393 23.5466C12.158 23.2655 12 22.8842 12 22.4867C12 22.0891 12.158 21.7079 12.4393 21.4268C12.7206 21.1457 13.1021 20.9878 13.5 20.9878H36.4999C36.8978 20.9878 37.2793 21.1457 37.5606 21.4268ZM26.4999 27.9829H13.5C13.1021 27.9829 12.7206 28.1408 12.4393 28.4219C12.158 28.703 12 29.0842 12 29.4818C12 29.8793 12.158 30.2606 12.4393 30.5417C12.7206 30.8228 13.1021 30.9807 13.5 30.9807H26.4999C26.8978 30.9807 27.2793 30.8228 27.5606 30.5417C27.8419 30.2606 27.9999 29.8793 27.9999 29.4818C27.9999 29.0842 27.8419 28.703 27.5606 28.4219C27.2793 28.1408 26.8978 27.9829 26.4999 27.9829Z" fill="black"/>
</svg>

<svg xmlns="http://www.w3.org/2000/svg" width="64" height="64" fill="none" viewBox="0 0 64 64"><path fill="currentColor" fill-rule="evenodd" d="M44.781 9.321a17.98 17.98 0 0 1-.007 25.34 18 18 0 0 1-12.644 5.313h-.94c-2.98 8.124-14.67 9.923-15.19 9.993a.8.8 0 0 1-.2 0 1.52 1.52 0 0 1-1.23-.62 1.49 1.49 0 0 1-.13-1.548A19.8 19.8 0 0 0 16 39.914c-9.08-.75-16-8.354-16-17.927A17.98 17.98 0 0 1 5.219 9.321 18 18 0 0 1 17.85 4h14.3a18 18 0 0 1 12.63 5.321M29.185 37.296a1.5 1.5 0 0 1 .925-.32h2.04c3.978 0 7.794-1.579 10.607-4.39a14.984 14.984 0 0 0 0-21.198 15 15 0 0 0-10.607-4.39h-14.3a14.95 14.95 0 0 0-10.527 4.425A14.92 14.92 0 0 0 3 21.987c0 8.404 6.37 14.99 14.5 14.99a1.51 1.51 0 0 1 1.5 1.418 27.7 27.7 0 0 1-.83 7.995c3.48-.97 9.25-3.278 10.48-8.275.082-.324.27-.613.535-.819M13.5 16.991h23a1.5 1.5 0 0 0 1.06-2.56 1.5 1.5 0 0 0-1.06-.438h-23a1.5 1.5 0 0 0-1.06 2.559 1.5 1.5 0 0 0 1.06.439M64 40.314c0-6.116-3.72-11.572-9-13.26a1.5 1.5 0 0 0-1.817 2.129 1.5 1.5 0 0 0 .917.728c4.09 1.3 7 5.576 7 10.403a10.54 10.54 0 0 1-7.88 10.203A1.49 1.49 0 0 0 52 51.796a15.9 15.9 0 0 0 .18 4.796 7.31 7.31 0 0 1-5.27-4.726 1 1 0 0 0-.07-.15l-.06-.12-.08-.12-.1-.12-.09-.08-.13-.11-.09-.06-.18-.14H46l-.18-.06h-1.95c-3 0-7-.879-9-5.056a1.503 1.503 0 0 0-2.7 1.319c2.13 4.347 6.29 6.735 11.72 6.735h.62C47.22 59.9 54.1 60 54.4 60a1.5 1.5 0 0 0 1.507-1.446 1.5 1.5 0 0 0-.167-.743 9.9 9.9 0 0 1-.8-4.676 13.55 13.55 0 0 0 6.579-4.965 13.53 13.53 0 0 0 2.48-7.856M37.56 21.427a1.498 1.498 0 0 1-1.06 2.559h-23a1.5 1.5 0 0 1-1.06-2.56 1.5 1.5 0 0 1 1.06-.438h23a1.5 1.5 0 0 1 1.06.439M26.5 27.983h-13a1.5 1.5 0 0 0-1.06 2.559 1.5 1.5 0 0 0 1.06.439h13a1.5 1.5 0 0 0 1.06-2.56 1.5 1.5 0 0 0-1.06-.438" clip-rule="evenodd"/></svg>
